!!!ONB: MCCC : IJH0433_03 : Extracted Monophonic Melody
!!!COM: Haydn, Joseph
!!!OPR: String Quartet in D major
!!!OMV: 3
!!!SCT: Hob.III:79 ; Op.76 No.5
!!!ODT: 1796///
**kern
*thru
*k[f#c#]
*D:
*clefF
*M3/4
4A
=1
4d
4f#
4a
=2
4a
4g
4f#
=3
4e
4d
4e
=4
8e
8f#
4d
4dd
=5
4b
4a#
4b
=6
8g#
8a
4d
4ff#
=7
4g#
4f#
4g#
=8
8g#
8a
4A
4aa
=9
8gg#
8aa
4b
8aa#
8bb
=10
4b
8ff#
8gg
4a
=11
8gg#
8aa
4a
8ccc#
8ddd
=12
8aa#
8bb
8ff#
8gg
8aa#
8bb
=13
8ff#
8gg
8dd#
8ee
8a#
8b
=14
8f#
8g
8d#
8e
8f#
8g
=15
8d#
8e
8f#
8g
8a
8b
=16
4d
4c#
4A
=17
4d
4f#
4a
=18
4a
4g
4f#
=19
4e
4d
4e
=20
8e
8f#
4d
4dd
=21
4b
4a#
4b
=22
8g#
8a
4d
4aa
=23
4gg
4ff#
4gg
=24
8ee#
8ff#
4ff#
4r
=25
4r
4ddd
4r
=26
4ddd
4r
4ddd
=27
4r
4ddd
4bb
=28
8aa#
8bb
4g
4bb
=29
8bb
8aa
4eee
4gg
=30
8gg
8ff#
4aa
4ff#
=31
8ff#
8ee
4gg
4cc#
=32
8cc#
8dd
4d
*d:
4r
=33
4r
4r
4cc#
=34
4dd
2r
=35
4r
4r
4cc#
=36
4dd
4r
4cc#
=37
4dd
4r
4cc#
=38
4dd
4ff
4ff
=39
2ee
4aa
=40
4aa
4r
4aa
=41
4aa
4r
4aa
=42
4aa
4r
4aa
=43
4aa
4r
4gg#
=44
4aa
4r
8cc#
8dd
=45
8ee
8ff
8gg
8aa
8bb-
8cc#
=46
8dd
8ee
8ff
8dd
8cc#
8dd
=47
8ee
8ff
8gg
8aa
8bb-
8cc#
=48
8dd
8ee
8ff
8ff#
8gg
8aa
=49
8bb-
8ccc
8ddd
8ee
8ff
8gg
=50
8aa
8bb-
8ccc
8dd
8ee
8ff
=51
8gg
8aa
8bb-
8gg
8ee
8dd
=52
8cc#
8ee
8gg#
8aa
4r
=53
4r
4r
4cc#
=54
4dd
2r
=55
4r
4r
4cc#
=56
4dd
4r
4cc#
=57
4dd
4r
4cc#
=58
4dd
4r
4ff#
=59
4gg
4r
4gg#
=60
4aa
8r
8bb-
8aa
8gg
=61
8ff
8ee
8dd
8bb-
8aa
8gg
=62
8ff
8ee
8dd
8ddd
8ccc
8bb-
=63
8aa
8gg
8ff
8ee
8dd
8cc
=64
8b-
8a
8g
8f
8e
8a
=65
4d
2r
==
*-
